symbols/web/table_restaurant/materialsymbolssharp/table_restaurant_wght300grad200_40px.svg

<svg xmlns="http://www.w3.org/2000/svg" height="40" width="40"><path d="M6.958 15.208h26.125L31.5 9.792H8.542ZM20 12.5Zm-8.708 9.125H28.75L28.25 18h-16.5Zm-4.334 11.25 2-14.875H3.25L6.375 6.958h27.25L36.833 18h-5.791l2.041 14.875h-2.791l-1.167-8.417h-18.25L9.75 32.875Z"/></svg>

<svg xmlns="http://www.w3.org/2000/svg" height="40" width="40"><path d="M6.958 15.208H33.083L31.5 9.792H8.542ZM20 12.5ZM11.292 21.625H28.75L28.25 18H11.75ZM6.958 32.875 8.958 18H3.25L6.375 6.958H33.625L36.833 18H31.042L33.083 32.875H30.292L29.125 24.458H10.875L9.75 32.875Z"/></svg>
